source/img/svg/plus.icon.svg

<svg width="51" height="50" viewBox="0 0 51 50" fill="none" xmlns="http://www.w3.org/2000/svg">
<path d="M25.3034 3C23.2063 13.0259 22.6963 22.8346 22.9493 33.0226C23.044 36.8354 23.7238 48.2504 23.2833 44.4598C22.7049 39.4821 23.0169 34.4184 23.6492 29.4637C24.0877 26.0277 24.5168 22.6132 24.6671 19.152C24.8249 15.5198 24.8185 11.837 25.6056 8.26232C25.8853 6.99199 26.4009 5.88208 26.9735 4.71862C27.0152 4.63386 27.4152 3.50701 27.2439 4.21672C25.9256 9.67892 25.5176 15.5418 25.2079 21.114C24.8073 28.3239 24.6335 35.7841 25.0807 42.9998C25.1805 44.6102 25.304 43.8951 25.1761 42.7868C24.8112 39.6246 24.4334 36.5369 24.5081 33.342C24.6776 26.0887 25.4255 18.4919 26.6236 11.3193C26.9572 9.32209 27.4376 7.37713 28.1187 5.46386C28.6661 3.92631 28.434 5.30454 28.3255 6.04181C27.1463 14.0529 26.2482 21.7915 26.1782 29.92C26.1446 33.8287 26.138 37.7399 26.3054 41.6461C26.3553 42.8099 26.8541 44.9087 26.4486 46.072C26.0626 47.1793 25.9704 43.7826 25.7487 42.6347C24.9232 38.359 24.6735 34.1705 24.9057 29.8287C25.3163 22.1523 26.855 14.6448 28.3255 7.10644C28.4451 6.49313 29.0063 4.93763 28.6118 4.27756C28.277 3.71738 27.7161 5.31604 27.5938 5.95055C27.0881 8.57543 27.0689 11.2758 27.0371 13.9353C26.9746 19.1697 26.9796 24.4125 27.0848 29.6462C27.1925 35.0014 27.7347 40.6138 26.9576 45.9503C26.4038 49.7532 25.3189 38.3672 25.3988 34.5283C25.5592 26.8218 27.7748 19.5239 27.3075 11.7604C27.2063 10.0787 27.3519 7.87717 26.7349 6.25473C26.4998 5.6365 25.3542 9.77883 25.3193 9.96574C23.6705 18.7945 24.747 27.8814 25.1761 36.764C25.2882 39.0831 25.4043 41.4393 25.2398 43.7602C25.1373 45.2057 24.9972 44.9488 24.6671 43.6689C22.8292 36.5415 22.2762 29.2223 23.2038 21.92C23.8815 16.5849 25.8442 11.2329 25.8442 5.82888C25.8442 5.71449 25.7826 4.04337 25.4306 5.08364C24.8916 6.6767 24.5919 8.42923 24.3013 10.0722C22.6633 19.3334 23.0906 28.7558 23.8082 38.072C23.9804 40.3074 24.0794 42.5767 24.4445 44.7944C24.7437 46.6119 24.7345 44.7404 24.6671 44.0644C24.3605 40.9853 23.6187 37.9617 23.2197 34.8933C22.5926 30.0704 22.8564 25.3192 23.5855 20.5208C24.3796 15.2956 26.1 9.74154 25.8283 4.41444C25.7573 3.02409 25.0393 5.31641 25.033 5.34219C24.2399 8.56519 24.4319 12.072 24.5081 15.3497C24.7159 24.2896 25.3306 33.2241 25.6056 42.1633C25.6147 42.4587 25.7785 43.9852 26.0032 42.6652C26.5039 39.7242 25.654 36.5672 25.3034 33.6614" stroke="#6DAD45" stroke-width="5" stroke-linecap="round" stroke-linejoin="round"/>
<path d="M47.7818 22.2465C37.3657 21.213 27.3238 21.7036 16.9688 22.9757C13.0935 23.4518 1.52969 25.2632 5.34902 24.4525C10.3645 23.3879 15.5533 23.1821 20.6619 23.2992C24.2046 23.3804 27.7246 23.4547 31.2653 23.2527C34.9808 23.0408 38.7321 22.6638 42.4497 23.0706C43.7708 23.2152 44.9512 23.6057 46.1917 24.0464C46.282 24.0785 47.4685 24.3547 46.729 24.2593C41.0373 23.525 35.0251 23.7178 29.3185 23.9771C21.9347 24.3126 14.3177 24.8944 7.00952 26.0564C5.37847 26.3158 6.11881 26.3641 7.23563 26.128C10.4221 25.4541 13.5314 24.7753 16.7935 24.5263C24.1993 23.9613 32.0107 23.925 39.4333 24.37C41.5002 24.494 43.5279 24.7661 45.5427 25.237C47.1618 25.6155 45.7353 25.5281 44.9738 25.4967C36.6987 25.1545 28.7283 25.0586 20.4405 25.8088C16.4552 26.1695 12.4699 26.5569 8.50644 27.1132C7.32561 27.279 5.23547 27.9762 4.01129 27.6983C2.84597 27.4337 6.29762 27.0019 7.4457 26.6705C11.7222 25.4358 15.9654 24.7709 20.411 24.56C28.2711 24.1871 36.0677 24.9302 43.8891 25.6038C44.5255 25.6586 46.1642 26.0487 46.7987 25.5979C47.3372 25.2154 45.6545 24.8299 44.9963 24.7747C42.2735 24.5464 39.5206 24.7995 36.808 25.0363C31.4694 25.5023 26.1286 26.035 20.8067 26.6644C15.3613 27.3084 9.69576 28.4016 4.18424 28.1818C0.256608 28.0252 11.752 25.8221 15.6706 25.5135C23.5373 24.8939 31.1855 26.3175 39.0498 25.0807C40.7533 24.8128 43.0102 24.733 44.6037 23.9686C45.2109 23.6774 40.8805 22.9784 40.6868 22.9632C31.5336 22.2459 22.3797 24.2093 13.3715 25.5216C11.0197 25.8642 8.63044 26.2146 6.2501 26.2879C4.76762 26.3336 5.01585 26.1713 6.28795 25.7209C13.3723 23.2129 20.7757 21.9374 28.3044 22.1059C33.8049 22.229 39.4463 23.6021 44.9518 23.0581C45.0684 23.0465 46.765 22.8183 45.6713 22.5802C43.9964 22.2155 42.1821 22.0999 40.4803 21.9823C30.8876 21.319 21.3293 22.6838 11.9073 24.3208C9.64653 24.7135 7.34416 25.0384 5.11991 25.6173C3.29706 26.0918 5.2029 25.8944 5.88509 25.7607C8.99248 25.152 12.0015 24.125 15.089 23.4275C19.9422 22.331 24.8079 22.1097 29.7666 22.3369C35.1664 22.5843 40.9903 23.7012 46.3913 22.9002C47.8009 22.6911 45.3965 22.2224 45.3696 22.2188C42.0097 21.7707 38.4555 22.3108 35.1236 22.715C26.0358 23.8174 16.9928 25.3157 7.91225 26.4835C7.61208 26.5221 6.07269 26.8354 7.43921 26.9214C10.4836 27.1131 13.6181 25.9673 16.5446 25.3332" stroke="#6DAD45" stroke-width="5" stroke-linecap="round" stroke-linejoin="round"/>
</svg>

<svg width="51" height="50" fill="none" xmlns="http://www.w3.org/2000/svg"><path d="M25.303 3c-2.097 10.026-2.607 19.835-2.354 30.023.095 3.812.775 15.227.334 11.437-.578-4.978-.266-10.042.366-14.996.439-3.436.868-6.85 1.018-10.312.158-3.632.151-7.315.939-10.89.28-1.27.795-2.38 1.367-3.543.042-.085.442-1.212.27-.502-1.317 5.462-1.725 11.325-2.035 16.897-.4 7.21-.574 14.67-.127 21.886.1 1.61.223.895.095-.213-.365-3.162-.743-6.25-.668-9.445.17-7.253.918-14.85 2.116-22.023a34.123 34.123 0 0 1 1.495-5.855c.547-1.538.315-.16.207.578-1.18 8.01-2.078 15.75-2.148 23.878-.033 3.909-.04 7.82.127 11.726.05 1.164.55 3.263.144 4.426-.386 1.107-.479-2.29-.7-3.437-.826-4.276-1.075-8.465-.843-12.806.41-7.677 1.949-15.184 3.42-22.723.12-.613.68-2.168.286-2.828-.335-.56-.896 1.038-1.018 1.673-.506 2.624-.525 5.325-.557 7.984a490.655 490.655 0 0 0 .048 15.711c.107 5.355.65 10.968-.127 16.304-.554 3.803-1.64-7.583-1.56-11.422.161-7.706 2.377-15.004 1.91-22.768-.102-1.681.044-3.883-.573-5.505-.235-.619-1.38 3.524-1.416 3.71-1.648 8.83-.572 17.916-.143 26.799.112 2.32.228 4.675.064 6.996-.103 1.446-.243 1.189-.573-.091-1.838-7.127-2.39-14.447-1.463-21.749.677-5.335 2.64-10.687 2.64-16.091 0-.115-.061-1.786-.413-.745-.54 1.593-.84 3.345-1.13 4.988-1.638 9.261-1.21 18.684-.493 28 .172 2.235.271 4.505.637 6.722.299 1.818.29-.054.222-.73-.307-3.079-1.048-6.102-1.447-9.17-.627-4.824-.364-9.575.366-14.373.794-5.225 2.514-10.78 2.242-16.107-.07-1.39-.789.902-.795.928-.793 3.223-.601 6.73-.525 10.008.208 8.94.823 17.874 1.098 26.813.009.296.172 1.822.397.502.5-2.94-.349-6.098-.7-9.004" stroke="#6DAD45" stroke-width="5" stroke-linecap="round" stroke-linejoin="round"/><path d="M47.782 22.247c-10.416-1.034-20.458-.543-30.813.729-3.876.476-15.44 2.287-11.62 1.477 5.015-1.065 10.204-1.27 15.313-1.154 3.543.081 7.063.156 10.603-.046 3.716-.212 7.467-.59 11.185-.182 1.32.144 2.501.535 3.742.975.09.032 1.276.309.537.213-5.692-.734-11.704-.541-17.41-.282-7.384.336-15.001.917-22.31 2.08-1.63.259-.89.307.227.071 3.186-.674 6.295-1.353 9.558-1.602 7.405-.565 15.217-.601 22.64-.156a36.25 36.25 0 0 1 6.109.867c1.619.379.192.291-.57.26-8.274-.343-16.245-.438-24.532.312-3.986.36-7.971.748-11.935 1.304-1.18.166-3.27.863-4.495.585-1.165-.264 2.287-.696 3.435-1.027 4.276-1.235 8.52-1.9 12.965-2.111 7.86-.373 15.657.37 23.478 1.044.636.055 2.275.445 2.91-.006.538-.383-1.145-.768-1.803-.823-2.723-.229-5.475.024-8.188.261-5.339.466-10.68.999-16.001 1.628-5.446.644-11.111 1.738-16.623 1.518-3.927-.157 7.568-2.36 11.487-2.668 7.866-.62 15.515.803 23.379-.433 1.703-.268 3.96-.348 5.554-1.112.607-.292-3.724-.99-3.917-1.006-9.153-.717-18.307 1.246-27.316 2.559-2.351.342-4.74.693-7.12.766-1.483.046-1.235-.117.037-.567 7.084-2.508 14.488-3.784 22.016-3.615 5.5.123 11.142 1.496 16.648.952.116-.011 1.813-.24.72-.478-1.676-.364-3.49-.48-5.192-.598-9.592-.663-19.15.702-28.573 2.339-2.26.392-4.563.717-6.787 1.296-1.823.475.083.277.765.144 3.107-.609 6.117-1.636 9.204-2.334 4.853-1.096 9.719-1.317 14.678-1.09 5.4.247 11.223 1.364 16.624.563 1.41-.209-.994-.678-1.021-.681-3.36-.448-6.914.092-10.246.496-9.088 1.102-18.131 2.6-27.212 3.768-.3.04-1.84.352-.473.438 3.045.192 6.18-.954 9.106-1.588" stroke="#6DAD45" stroke-width="5" stroke-linecap="round" stroke-linejoin="round"/></svg>
